X: 159
T:The laurel tree
R:Reel
O:Ireland
P:APB The Bothy Band
D:Bothy Band: Live in Concert
S:Bothy Band: Live in Concert
Z:Transcription, chords:Mike Long
M:C|
L:1/8
K:G
"Am"eA~A2 e2dc|"G"(3(Bcd) GA Bcdg|"Am"eA~A2 e2dc|"G"BAGB "Am"A2(3(Bcd)|\
"Am"eA~A2 e2dc|"G"(3(Bcd) GA Bcdg|
"Am"e2ef "C"g2 ag|"G"gedB "Am"A2(3(Bcd):|\
"Am"eaag (3(efg) dc|"G"(3(Bcd) GA Bcdg|"Am"eaag e2dc|"G"BAGB "Am"A2(3(Bcd)|
"Am"eaag (3(efg) dc|"G"(3(Bcd) GA Bcdg|"Am"e2ef "C"g2 ag|"G"gedB "Am"A2(3(Bcd)||\
"Am"eaag (3(efg) dc|"G"(3(Bcd) GA Bcdg|
"Am"eaag a2ga|"G"bagb "Am"a2ag|\
"Am"eaag (3(efg) dc|"G"(3(Bcd) GA Bcdg|"Am"e2ef "C"g2 ag|"G"gedB "Am"A2(3(Bcd)|]

